src/theme/images/Flags/Afghanistan.svg

<svg fill="none" height="16" viewBox="0 0 20 16" width="20" xmlns="http://www.w3.org/2000/svg" xmlns:xlink="http://www.w3.org/1999/xlink"><mask id="a" height="16" maskUnits="userSpaceOnUse" width="20" x="0" y="0"><rect fill="#fff" height="15" rx="2" width="20" y=".5"/></mask><rect fill="#fff" height="15" rx="2" width="20" y=".5"/><g mask="url(#a)"><path d="m9.52393.5h10.4762v15h-10.4762z" fill="#1ab11f"/><path clip-rule="evenodd" d="m0 15.5h6.66667v-15h-6.66667z" fill="#262626" fill-rule="evenodd"/><path clip-rule="evenodd" d="m6.66699 15.5h6.66671v-15h-6.66671z" fill="#dc0d18" fill-rule="evenodd"/><g fill="#fff"><path d="m8.76188 7.5c0-.36819-.29848-.66667-.66667-.66667-.36818 0-.66666.29848-.66666.66667zm-.06333 2.30043c.31443.19157.72462.09197.91619-.22246s.09197-.72462-.22246-.91619zm1.95485-1.16766c-.3057.20527-.3871.61946-.1818.92512.2052.30566.6194.38705.9251.18178zm1.9182-1.13265c0-.36819-.2985-.66666-.6667-.66666s-.6667.29847-.6667.66666zm-5.14305-.00012c0 .97098.50248 1.83282 1.27 2.30043l.69373-1.13865c-.36874-.22465-.6304-.65409-.6304-1.16178zm3.96815 2.23967c.7134-.47911 1.1749-1.30898 1.1749-2.23955h-1.3334c0 .48623-.2401.90112-.5848 1.13265z" opacity=".75"/><path clip-rule="evenodd" d="m9.99974 8.5c.52596 0 .95236-.67157.95236-1.5s-.4264-1.5-.95236-1.5c-.52598 0-.95238.67157-.95238 1.5s.4264 1.5.95238 1.5z" fill-opacity=".5" fill-rule="evenodd"/></g></g></svg>

<svg width="20" height="16" viewBox="0 0 20 16" fill="none" xmlns="http://www.w3.org/2000/svg">
<rect y="0.5" width="20" height="15" rx="2" fill="white"/>
<mask id="mask0" mask-type="alpha" maskUnits="userSpaceOnUse" x="0" y="0" width="20" height="16">
<rect y="0.5" width="20" height="15" rx="2" fill="white"/>
</mask>
<g mask="url(#mask0)">
<rect x="9.52393" y="0.5" width="10.4762" height="15" fill="#1AB11F"/>
<path fill-rule="evenodd" clip-rule="evenodd" d="M0 15.5H6.66667V0.5H0V15.5Z" fill="#262626"/>
<path fill-rule="evenodd" clip-rule="evenodd" d="M6.66699 15.5H13.3337V0.5H6.66699V15.5Z" fill="#DC0D18"/>
<path opacity="0.75" d="M8.76188 7.5C8.76188 7.13181 8.4634 6.83333 8.09521 6.83333C7.72703 6.83333 7.42855 7.13181 7.42855 7.5H8.76188ZM8.69855 9.80043C9.01298 9.992 9.42317 9.8924 9.61474 9.57797C9.80631 9.26354 9.70671 8.85335 9.39228 8.66178L8.69855 9.80043ZM10.6534 8.63277C10.3477 8.83804 10.2663 9.25223 10.4716 9.55789C10.6768 9.86355 11.091 9.94494 11.3967 9.73967L10.6534 8.63277ZM12.5716 7.50012C12.5716 7.13193 12.2731 6.83346 11.9049 6.83346C11.5367 6.83346 11.2382 7.13193 11.2382 7.50012H12.5716ZM7.42855 7.5C7.42855 8.47098 7.93103 9.33282 8.69855 9.80043L9.39228 8.66178C9.02354 8.43713 8.76188 8.00769 8.76188 7.5H7.42855ZM11.3967 9.73967C12.1101 9.26056 12.5716 8.43069 12.5716 7.50012H11.2382C11.2382 7.98635 10.9981 8.40124 10.6534 8.63277L11.3967 9.73967Z" fill="white"/>
<path fill-rule="evenodd" clip-rule="evenodd" d="M9.99974 8.5C10.5257 8.5 10.9521 7.82843 10.9521 7C10.9521 6.17157 10.5257 5.5 9.99974 5.5C9.47376 5.5 9.04736 6.17157 9.04736 7C9.04736 7.82843 9.47376 8.5 9.99974 8.5Z" fill="white" fill-opacity="0.5"/>
</g>
</svg>
